X:1
T:Title
%%score ( 1 2 ) { 3 | 4 }
L:1/8
Q:1/4=150
M:3/4
K:G
V:1 treble nm="Grand Piano, Unnamed-000"
V:2 treble 
V:3 bass nm="Choir Pad, Unnamed-001"
V:4 bass 
V:1
 D4 D2 | [DG]4 [DG]2 | B3 A G2 | [FA]6 | [GB]4 [GB]2 | [Gd]4 [DG]2 | F3 G [DA]2 | [DG]6 | D4 D2 | %9
w: By~Marcus~M.~Wells,~1858 *|||||||||
 [DG]4 [DG]2 | B3 A G2 | [FA]6 | [GB]4 [GB]2 | [Gd]4 [DG]2 | F3 G [DA]2 | [DG]6 | [Fc]4 [Fc]2 | %17
w: ||||||||
 [GB]4 [GB]2 | [FA]3 [GB] [Ac]2 | [GB]6 | [Gd]4 [Gd]2 | [GB]4 [GB]2 | [Ac]4 [GB]2 | [FA]6 | D4 D2 | %25
w: ||||||||
 [DG]4 [DG]2 | B3 A G2 | [FA]6 | [GB]4 [GB]2 | [Gd]4 [DG]2 | F3 G [DA]2 | [DG]6- | [DG]2 z2 z2 |] %33
w: ||||||||
V:2
 x6 | x6 | D4 z2 | x6 | x6 | x6 | D4 z2 | x6 | x6 | x6 | D4 z2 | x6 | x6 | x6 | D4 z2 | x6 | x6 | %17
 x6 | x6 | x6 | x6 | x6 | x6 | x6 | x6 | x6 | D4 z2 | x6 | x6 | x6 | D4 z2 | x6 | x6 |] %33
V:3
 B,4 B,2 | B,4 B,2 | D3[K:treble] C B,2 | D6 | D4 D2 | B,4 B,2 | A,3 B, C2 | B,6 | B,4 B,2 | %9
 B,4 B,2 | D3 C B,2 | D6 | D4 D2 | B,4 B,2 | A,3 B, C2 | B,6 | A,4 A,2 | G,4 G,2 | D4 D2 | D6 | %20
 B,4 B,2 | D4 D2 | D4 D2 | D6 | B,4 B,2 | B,4 B,2 | D3[K:treble] C B,2 | D6 | D4 D2 | B,4 B,2 | %30
 A,3 B, C2 | B,6- | B,2 z2 z2 |] %33
V:4
 G,4 G,2 | G,4 G,2 | G,4 G,2 | D,6 | G,4 G,2 | G,4 G,2 | D,4 D,2 | G,,6 | G,4 G,2 | G,4 G,2 | %10
 G,4 G,2 | D,6 | G,4 G,2 | G,4 G,2 | D,4 D,2 | G,,6 | D,4 D,2 | z6 | D,4 D,2 | G,6 | G,4 G,2 | %21
 G,4 G,2 | F,4 G,2 | D,6 | G,,4 G,,2 | G,,4 G,,2 | G,4 G,2 | D,6 | G,4 G,2 | G,4 G,2 | D,4 D,2 | %31
 G,,6- | G,,2 z2 z2 |] %33

